X:2
T:Alan MacPherson
O:Skye
R:jig
Z:C. McGrew from Charlie Cowie's handouts at the 1993 Solstice festival.
M:6/8
Q:3/8=120
K:A
%%MIDI gchord cc
P: A
a| "A"fae fce| "Bm"AAA ace| "A"dcc ceA| "Bm"cBB "E7"B2a| "A"fae fce|
   "D"AAA ace| "Bm"dcc "E7"eBe| "A"A3 A2:|
e| "D"a2e fga| "Bm"f2a fec| "D"dcc ceA| "Bm"cBB "E7"B2 e| 
   "A"a2e fga| "Bm"f2a fec| "D"dcc eBe| "A"A3 A2  e|
   "D"a2e fga| "Bm"f2a fec| "D"dcc ceA| "Bm"cBB "E7"B2 a| 
   "A"fae fce|  AAA ace| "Bm"dcc "E7"eBe| "A"A3 A2 ||
P: B
a| "A"A2c AAA| ece fec| "Bm"dcc ceA| cBB "E7"B2a| "A"A2c AAA|
   ece fec| "Bm"dcc "E7"eBe| "A"A3 A2 :| 
e| "A"aAa a2e| aef ceA| "D"dcc ceA| "Bm"cBB "E7"B2 e| "A"aAa a2e| 
   aef ceA| "Bm"dcc "E7"eBe| "A"A3 A2 e| "A"aAa a2e| aef ceA|
   "D"dcc ceA| "Bm"cBB "E7"B2 a| "A"A2c AAA| 
   ece fec| "Bm"dcc "E7"eBe| "A"A3 A2 ||
